!!!!SEGMENT: pl-kk--kk-i-3--041_anonim--venit-caeli-nuntius.krn
!!!cenid: 15xx:651
!!!COM: Anonim
!!!COM-rismid: pe30004985
!!!CDT:
!!!CNT:
!!!OTL: Venit caeli nuntius
!!!PDT:
!!!AGN:
!!!SMS-siglum: PL-Kk
!!!SMS-shelfmark: Kk.I.3
!!!SMS-shelfwork: 041 W
!!!SMS-variant:
!!!SMS-altvar:
!!!NIFC-rismid: 1001145545
!!!URL-scan: http://repozytorium.nifc.pl/skany/pl-kk-nut--i-3
!!!ONB-nifc: UWAGA: Discantus (s. 119v-121v, skan 0122-0124), Tenor (s. 90r-91r, skan 0262-0263), Bassus (s. 115v-117r, skan 0419-0420)
**kern	**text	**text	**kern	**text	**text	**text	**kern	**text	**text	**text
*part3	*part3	*part3	*part2	*part2	*part2	*part2	*part1	*part1	*part1	*part1
*staff3	*staff3	*staff3	*staff2	*staff2	*staff2	*staff2	*staff1	*staff1	*staff1	*staff1
*Ibass	*	*	*Itenor	*	*	*	*Iempty	*	*	*
*I"Bassus	*	*	*I"Tenor	*	*	*	*I"Discantus	*	*	*
*I'B	*	*	*I'T	*	*	*	*I'A	*	*	*
*ICvox	*	*	*ICvox	*	*	*	*ICvox	*	*	*
*IG	*	*	*IG	*	*	*	*IG	*	*	*
*clefF4	*	*	*clefC4	*	*	*	*clefC3	*	*	*
*k[]	*	*	*k[]	*	*	*	*k[]	*	*	*
*C:	*	*	*C:	*	*	*	*C:	*	*	*
*M2/2	*	*	*M2/2	*	*	*	*M2/2	*	*	*
*met(C|)	*	*	*met(C|)	*	*	*	*met(C|)	*	*	*
*2\right	*	*	*2\right	*	*	*	*2\right	*	*	*
*all\right	*	*	*all\right	*	*	*	*all\right	*	*	*
=1-	=1-	=1-	=1-	=1-	=1-	=1-	=1-	=1-	=1-	=1-
1r	.	.	1r	.	.	.	1c	Ve-	.	.
=2-	=2-	=2-	=2-	=2-	=2-	=2-	=2-	=2-	=2-	=2-
1r	.	.	1r	.	.	.	1d	-nit	.	.
=3-	=3-	=3-	=3-	=3-	=3-	=3-	=3-	=3-	=3-	=3-
1r	.	.	1r	.	.	.	1f	ce-	.	.
=4-	=4-	=4-	=4-	=4-	=4-	=4-	=4-	=4-	=4-	=4-
1r	.	.	1r	.	.	.	1g	-li	.	.
=5-	=5-	=5-	=5-	=5-	=5-	=5-	=5-	=5-	=5-	=5-
*	*	*	*	*	*	*	*lig	*	*	*
1r	.	.	1r	.	.	.	1f	nunc-	.	.
=6-	=6-	=6-	=6-	=6-	=6-	=6-	=6-	=6-	=6-	=6-
1r	.	.	1C	Ve-	.	.	1e	.	.	.
*	*	*	*	*	*	*	*Xlig	*	*	*
=7-	=7-	=7-	=7-	=7-	=7-	=7-	=7-	=7-	=7-	=7-
1GG	Ve-	.	1D	-nit	.	.	1d	.	.	.
=8-	=8-	=8-	=8-	=8-	=8-	=8-	=8-	=8-	=8-	=8-
1AA	-nit	.	1F	ce-	.	.	2c/	.	.	.
.	.	.	.	.	.	.	2f\	.	.	.
=9-	=9-	=9-	=9-	=9-	=9-	=9-	=9-	=9-	=9-	=9-
1C	ce-	.	1G	-li	.	.	1e	.	.	.
=10-	=10-	=10-	=10-	=10-	=10-	=10-	=10-	=10-	=10-	=10-
*	*	*	*lig	*	*	*	*	*	*	*
1D	-li	.	1F	nunc-	.	.	1d	-cius	.	.
=11-	=11-	=11-	=11-	=11-	=11-	=11-	=11-	=11-	=11-	=11-
*lig	*	*	*	*	*	*	*	*	*	*
!	!	!	!	!	!	!	!LO:SIC:v:t=custos c	!	!	!
1C	nunc-	.	1E	.	.	.	2r	.	.	.
!	!	!	!	!	!	!	!LO:LB:g=original	!	!	!
.	.	.	.	.	.	.	2c/	ve-	.	.
*	*	*	*Xlig	*	*	*	*	*	*	*
=12-	=12-	=12-	=12-	=12-	=12-	=12-	=12-	=12-	=12-	=12-
1BB	.	.	1D	.	.	.	2.d/	.	.	.
.	.	.	.	.	.	.	4e\	.	.	.
*Xlig	*	*	*	*	*	*	*	*	*	*
=13-	=13-	=13-	=13-	=13-	=13-	=13-	=13-	=13-	=13-	=13-
1AA	-cius	.	1C	-cius	.	.	2f\	-nit	.	.
.	.	.	.	.	.	.	1e\	miſ-	.	.
=14-	=14-	=14-	=14-	=14-	=14-	=14-	=14-	=14-	=14-	=14-
0GG	.	.	0D	.	.	.	.	.	.	.
.	.	.	.	.	.	.	4d/	.	.	.
.	.	.	.	.	.	.	4c/	sus	.	.
=15-	=15-	=15-	=15-	=15-	=15-	=15-	=15-	=15-	=15-	=15-
.	.	.	.	.	.	.	2d\	ce-	.	.
.	.	.	.	.	.	.	4g\	.	.	.
.	.	.	.	.	.	.	4f\	.	.	.
=16-	=16-	=16-	=16-	=16-	=16-	=16-	=16-	=16-	=16-	=16-
1AA	.	.	1r	.	.	.	4e\	.	.	.
.	.	.	.	.	.	.	4d/	.	.	.
.	.	.	.	.	.	.	1c\	.	.	.
=17-	=17-	=17-	=17-	=17-	=17-	=17-	=17-	=17-	=17-	=17-
!LO:SIC:v:t=custos C	!	!	!	!	!	!	!	!	!	!
1r	.	.	1r	.	.	.	.	.	.	.
!LO:LB:g=original	!	!	!	!	!	!	!	!	!	!
.	.	.	.	.	.	.	2B/	.	.	.
=18-	=18-	=18-	=18-	=18-	=18-	=18-	=18-	=18-	=18-	=18-
!	!	!	!LO:SIC:v:t=custos F	!	!	!	!	!	!	!
1C	ve-	.	1r	.	.	.	2A/	.	.	.
!	!	!	!LO:LB:g=original	!	!	!	!LO:SIC:v:t=custos F	!	!	!
.	.	.	.	.	.	.	2G/	.	.	.
!	!	!	!	!	!	!	!LO:LB:g=original	!	!	!
*	*	*	*	*	*	*	*clefC4	*	*	*
=19-	=19-	=19-	=19-	=19-	=19-	=19-	=19-	=19-	=19-	=19-
1D	-nit	.	1F	ve-	.	.	2F/	.	.	.
.	.	.	.	.	.	.	4E/	.	.	.
.	.	.	.	.	.	.	4D/	.	.	.
=20-	=20-	=20-	=20-	=20-	=20-	=20-	=20-	=20-	=20-	=20-
1E	miſ-	.	1G	-nit	.	.	2C/	.	.	.
.	.	.	.	.	.	.	2c\	.	.	.
=21-	=21-	=21-	=21-	=21-	=21-	=21-	=21-	=21-	=21-	=21-
1F	-sus	.	1A	miſ-	.	.	2.A/	.	.	.
.	.	.	.	.	.	.	4G/	.	.	.
=22-	=22-	=22-	=22-	=22-	=22-	=22-	=22-	=22-	=22-	=22-
2E/	ce-	.	1B	-sus	.	.	2G/	.	.	.
1D\	li-	.	.	.	.	.	4F/	.	.	.
.	.	.	.	.	.	.	4G/	.	.	.
=23-	=23-	=23-	=23-	=23-	=23-	=23-	=23-	=23-	=23-	=23-
.	.	.	0A	ce-	.	.	4A/	.	.	.
.	.	.	.	.	.	.	4B/	.	.	.
2C/	.	.	.	.	.	.	2c/	.	.	.
=24-	=24-	=24-	=24-	=24-	=24-	=24-	=24-	=24-	=24-	=24-
1D	.	.	.	.	.	.	2A/	.	.	.
.	.	.	.	.	.	.	2.d\	.	.	.
=25-	=25-	=25-	=25-	=25-	=25-	=25-	=25-	=25-	=25-	=25-
1E	-tus	.	1G	.	.	.	.	.	.	.
!	!	!	!	!	!	!	!LO:SIC:v:t=custos c	!	!	!
.	.	.	.	.	.	.	4B/	.	.	.
!	!	!	!	!	!	!	!LO:LB:g=original	!	!	!
*	*	*	*	*	*	*	*clefC3	*	*	*
.	.	.	.	.	.	.	2c/	li-	.	.
=26-	=26-	=26-	=26-	=26-	=26-	=26-	=26-	=26-	=26-	=26-
1r	.	.	0F	.	.	.	1A	-tus	.	.
=27-	=27-	=27-	=27-	=27-	=27-	=27-	=27-	=27-	=27-	=27-
1r	.	.	.	.	.	.	1r	.	.	.
=28-	=28-	=28-	=28-	=28-	=28-	=28-	=28-	=28-	=28-	=28-
2r	.	.	1G	-li-	.	.	2r	.	.	.
1C/	ad	.	.	.	.	.	1e\	ad	.	.
=29-	=29-	=29-	=29-	=29-	=29-	=29-	=29-	=29-	=29-	=29-
.	.	.	1A	-tus	.	.	.	.	.	.
2D/	vi-	.	.	.	.	.	1f\	vi-	.	.
=30-	=30-	=30-	=30-	=30-	=30-	=30-	=30-	=30-	=30-	=30-
2F\	-rgi-	.	2r	.	.	.	.	.	.	.
!LO:SIC:v:t=custos F	!	!	!	!	!	!	!	!	!	!
1G\	-nem	.	1C/	ad	.	.	4e\	-rgi-	.	.
!LO:LB:g=original	!	!	!	!	!	!	!	!	!	!
.	.	.	.	.	.	.	4d/	.	.	.
=31-	=31-	=31-	=31-	=31-	=31-	=31-	=31-	=31-	=31-	=31-
.	.	.	.	.	.	.	2e\	-nem	.	.
2.F\	Ma-	.	2D/	vi-	.	.	2f\	.	.	.
=32-	=32-	=32-	=32-	=32-	=32-	=32-	=32-	=32-	=32-	=32-
.	.	.	1F	-rgi-	.	.	2c/	ma-	.	.
4E/	.	.	.	.	.	.	.	.	.	.
1D\	-ri-	.	.	.	.	.	2d/	-ri-	.	.
=33-	=33-	=33-	=33-	=33-	=33-	=33-	=33-	=33-	=33-	=33-
.	.	.	1G	-nem	.	.	1e	.	.	.
2C/	.	.	.	.	.	.	.	.	.	.
=34-	=34-	=34-	=34-	=34-	=34-	=34-	=34-	=34-	=34-	=34-
1D	-am	.	2.F/	Ma-	.	.	0d	-am	.	.
!	!	!	!LO:SIC:v:t=custos D	!	!	!	!	!	!	!
.	.	.	4E/	-ri-	.	.	.	.	.	.
!	!	!	!LO:LB:g=original	!	!	!	!	!	!	!
=35-	=35-	=35-	=35-	=35-	=35-	=35-	=35-	=35-	=35-	=35-
2r	.	.	1D	-am	.	.	.	.	.	.
1GG/	/ad	.	.	.	.	.	.	.	.	.
=36-	=36-	=36-	=36-	=36-	=36-	=36-	=36-	=36-	=36-	=36-
*	*	*	*	*	*	*	*	*ij	*	*
.	.	.	1r	.	.	.	2d/	ad	.	.
2AA/	vir-	.	.	.	.	.	2.c/	vir-	.	.
=37-	=37-	=37-	=37-	=37-	=37-	=37-	=37-	=37-	=37-	=37-
2C/	-gi-	.	1r	.	.	.	.	.	.	.
!	!	!	!	!	!	!	!LO:SIC:v:t=custos A	!	!	!
.	.	.	.	.	.	.	4B/	.	.	.
!	!	!	!	!	!	!	!LO:LB:g=original	!	!	!
1D\	-ne	.	.	.	.	.	2A/	-gi-	.	.
=38-	=38-	=38-	=38-	=38-	=38-	=38-	=38-	=38-	=38-	=38-
.	.	.	2r	.	.	.	2B/	.	.	.
*	*	*	*	*ij	*	*	*	*	*	*
2.C/	Ma-	.	2.C/	ad	.	.	2c/	.	.	.
=39-	=39-	=39-	=39-	=39-	=39-	=39-	=39-	=39-	=39-	=39-
.	.	.	.	.	.	.	1c	-ne	.	.
4BB/	.	.	4D/	.	.	.	.	.	.	.
1AA/	-ri-	.	2E/	-vir-	.	.	.	.	.	.
=40-	=40-	=40-	=40-	=40-	=40-	=40-	=40-	=40-	=40-	=40-
.	.	.	2F/	-gi-	.	.	1r	.	.	.
2GG/	.	.	2G/	-ne	.	.	.	.	.	.
=41-	=41-	=41-	=41-	=41-	=41-	=41-	=41-	=41-	=41-	=41-
1AA	-am/	.	2F/	Ma-	.	.	2r	.	.	.
.	.	.	4E/	.	.	.	1c\	Ma-	.	.
.	.	.	4D/	.	.	.	.	.	.	.
=42-	=42-	=42-	=42-	=42-	=42-	=42-	=42-	=42-	=42-	=42-
1r	.	.	1E	-ri-	.	.	.	.	.	.
.	.	.	.	.	.	.	2c/	.	.	.
=43-	=43-	=43-	=43-	=43-	=43-	=43-	=43-	=43-	=43-	=43-
!LO:SIC:v:t=custos AA	!	!	!	!	!	!	!	!	!	!
1GG	De-	.	1D	-am	.	.	1d	-ri-	.	.
!LO:LB:g=original	!	!	!	!	!	!	!	!	!	!
*	*	*	*	*Xij	*	*	*	*	*	*
=44-	=44-	=44-	=44-	=44-	=44-	=44-	=44-	=44-	=44-	=44-
1AA	ſpon-	.	1r	.	.	.	2c/	.	.	.
.	.	.	.	.	.	.	2.e\	.	.	.
=45-	=45-	=45-	=45-	=45-	=45-	=45-	=45-	=45-	=45-	=45-
1C	ſa-	.	1r	.	.	.	.	.	.	.
.	.	.	.	.	.	.	4d/	.	.	.
.	.	.	.	.	.	.	4c/	.	.	.
.	.	.	.	.	.	.	4B/	.	.	.
=46-	=46-	=46-	=46-	=46-	=46-	=46-	=46-	=46-	=46-	=46-
1D	-tam	.	1r	.	.	.	1A	-am	.	.
*	*	*	*	*	*	*	*	*Xij	*	*
=47-	=47-	=47-	=47-	=47-	=47-	=47-	=47-	=47-	=47-	=47-
*lig	*	*	*	*	*	*	*	*	*	*
1C	Jo-	.	1C	De-	.	.	2r	.	.	.
!	!	!	!	!	!	!	!LO:SIC:v:t=custos d	!	!	!
.	.	.	.	.	.	.	1e\	De-	.	.
!	!	!	!	!	!	!	!LO:LB:g=original	!	!	!
=48-	=48-	=48-	=48-	=48-	=48-	=48-	=48-	=48-	=48-	=48-
1BB	.	.	1D	-ſpon-	.	.	.	.	.	.
.	.	.	.	.	.	.	2d/	-ſpon-	.	.
*Xlig	*	*	*	*	*	*	*	*	*	*
=49-	=49-	=49-	=49-	=49-	=49-	=49-	=49-	=49-	=49-	=49-
!	!	!	!LO:SIC:v:t=custos G	!	!	!	!	!	!	!
1AA	.	.	1F	-ſa-	.	.	2c/	-ſa-	.	.
!	!	!	!LO:LB:g=original	!	!	!	!	!	!	!
.	.	.	.	.	.	.	4B/	-tam	.	.
.	.	.	.	.	.	.	4A/	.	.	.
=50-	=50-	=50-	=50-	=50-	=50-	=50-	=50-	=50-	=50-	=50-
1GG	.	.	1G	-tam	.	.	1B	.	.	.
=51-	=51-	=51-	=51-	=51-	=51-	=51-	=51-	=51-	=51-	=51-
*	*	*	*lig	*	*	*	*	*	*	*
1AA	-zeph	.	1F	Jo-	.	.	1A	.	.	.
=52-	=52-	=52-	=52-	=52-	=52-	=52-	=52-	=52-	=52-	=52-
1C	vi-	.	1E	.	.	.	2G/	.	.	.
.	.	.	.	.	.	.	1c\	.	.	.
*	*	*	*Xlig	*	*	*	*	*	*	*
=53-	=53-	=53-	=53-	=53-	=53-	=53-	=53-	=53-	=53-	=53-
1D	-ro	.	1D	.	.	.	.	.	.	.
.	.	.	.	.	.	.	2B/	.	.	.
=54-	=54-	=54-	=54-	=54-	=54-	=54-	=54-	=54-	=54-	=54-
1E	ius-	.	1C	.	.	.	2.c/	.	.	.
.	.	.	.	.	.	.	4B/	.	.	.
=55-	=55-	=55-	=55-	=55-	=55-	=55-	=55-	=55-	=55-	=55-
1F	to	.	1D	-zeph	.	.	2A/	.	.	.
.	.	.	.	.	.	.	1d\	Jo-	.	.
=56-	=56-	=56-	=56-	=56-	=56-	=56-	=56-	=56-	=56-	=56-
*lig	*	*	*	*	*	*	*	*	*	*
1E	fi-	.	1r	.	.	.	.	.	.	.
.	.	.	.	.	.	.	2c/	.	.	.
=57-	=57-	=57-	=57-	=57-	=57-	=57-	=57-	=57-	=57-	=57-
1D	.	.	1r	.	.	.	1d	-zeph	.	.
*Xlig	*	*	*	*	*	*	*	*	*	*
=58-	=58-	=58-	=58-	=58-	=58-	=58-	=58-	=58-	=58-	=58-
!LO:SIC:v:t=custos D	!	!	!	!	!	!	!	!	!	!
1C	.	.	1r	.	.	.	2r	.	.	.
!LO:LB:g=original	!	!	!	!	!	!	!LO:SIC:v:t=custos d	!	!	!
.	.	.	.	.	.	.	1e\	vi-	.	.
!	!	!	!	!	!	!	!LO:LB:g=original	!	!	!
=59-	=59-	=59-	=59-	=59-	=59-	=59-	=59-	=59-	=59-	=59-
1D	-de-	.	1F	vi-	.	.	.	.	.	.
.	.	.	.	.	.	.	2d/	-ro	.	.
=60-	=60-	=60-	=60-	=60-	=60-	=60-	=60-	=60-	=60-	=60-
1E	-li	.	1G	-ro	.	.	2c/	ius-	.	.
.	.	.	.	.	.	.	1B/	-to	.	.
=61-	=61-	=61-	=61-	=61-	=61-	=61-	=61-	=61-	=61-	=61-
1r	.	.	1A	ius-	.	.	.	.	.	.
.	.	.	.	.	.	.	1A/	fi-	.	.
=62-	=62-	=62-	=62-	=62-	=62-	=62-	=62-	=62-	=62-	=62-
1GG	et	.	1B	-to	.	.	.	.	.	.
.	.	.	.	.	.	.	2G/	-de-	.	.
=63-	=63-	=63-	=63-	=63-	=63-	=63-	=63-	=63-	=63-	=63-
*	*	*	*lig	*	*	*	*	*	*	*
1AA	de-	.	1A	fi-	.	.	1F	-li	.	.
=64-	=64-	=64-	=64-	=64-	=64-	=64-	=64-	=64-	=64-	=64-
1C	-o	.	1G	.	.	.	1E	.	.	.
*	*	*	*Xlig	*	*	*	*	*	*	*
=65-	=65-	=65-	=65-	=65-	=65-	=65-	=65-	=65-	=65-	=65-
1D	a-	.	1F	-de-	.	.	1D	.	.	.
=66-	=66-	=66-	=66-	=66-	=66-	=66-	=66-	=66-	=66-	=66-
*lig	*	*	*	*	*	*	*	*	*	*
1C	-ma-	.	0G	.	.	.	1r	.	.	.
=67-	=67-	=67-	=67-	=67-	=67-	=67-	=67-	=67-	=67-	=67-
1BB	.	.	.	.	.	.	2r	.	.	.
.	.	.	.	.	.	.	1d\	et	.	.
*Xlig	*	*	*	*	*	*	*	*	*	*
=68-	=68-	=68-	=68-	=68-	=68-	=68-	=68-	=68-	=68-	=68-
1AA	.	.	1A	-li	.	.	.	.	.	.
.	.	.	.	.	.	.	2c/	de-	.	.
=69-	=69-	=69-	=69-	=69-	=69-	=69-	=69-	=69-	=69-	=69-
!	!	!	!LO:SIC:v:t=custos C	!	!	!	!	!	!	!
1GG	.	.	1r	.	.	.	2d/	-o	.	.
!	!	!	!LO:LB:g=original	!	!	!	!	!	!	!
.	.	.	.	.	.	.	2.g\	a-	.	.
=70-	=70-	=70-	=70-	=70-	=70-	=70-	=70-	=70-	=70-	=70-
2AA/	.	.	1C	et	.	.	.	.	.	.
.	.	.	.	.	.	.	4f\	.	.	.
2C/	.	.	.	.	.	.	2e\	-ma-	.	.
=71-	=71-	=71-	=71-	=71-	=71-	=71-	=71-	=71-	=71-	=71-
!	!	!	!	!	!	!	!LO:SIC:v:t=custos c	!	!	!
1BB	-bi-	.	1D	de-	.	.	1d	.	.	.
!	!	!	!	!	!	!	!LO:LB:g=original	!	!	!
=72-	=72-	=72-	=72-	=72-	=72-	=72-	=72-	=72-	=72-	=72-
1AA	-li	.	1F	-o	.	.	2c/	.	.	.
.	.	.	.	.	.	.	2f\	.	.	.
=73-	=73-	=73-	=73-	=73-	=73-	=73-	=73-	=73-	=73-	=73-
1r	.	.	1G	a-	.	.	4e\	.	.	.
.	.	.	.	.	.	.	4d\	.	.	.
.	.	.	.	.	.	.	4c/	.	.	.
.	.	.	.	.	.	.	4B/	.	.	.
=74-	=74-	=74-	=74-	=74-	=74-	=74-	=74-	=74-	=74-	=74-
*	*	*	*lig	*	*	*	*	*	*	*
2r	.	.	1F	-ma-	.	.	2A/	.	.	.
*	*ij	*	*	*	*	*	*	*	*	*
2.A\	et	.	.	.	.	.	2.d\	.	.	.
=75-	=75-	=75-	=75-	=75-	=75-	=75-	=75-	=75-	=75-	=75-
.	.	.	1E	.	.	.	.	.	.	.
!LO:SIC:v:t=custos G	!	!	!	!	!	!	!	!	!	!
4F\	.	.	.	.	.	.	4c/	.	.	.
!LO:LB:g=original	!	!	!	!	!	!	!	!	!	!
2G\	de-	.	.	.	.	.	1c\	bi-	.	.
*	*	*	*Xlig	*	*	*	*	*	*	*
=76-	=76-	=76-	=76-	=76-	=76-	=76-	=76-	=76-	=76-	=76-
2D/	.	.	1D	.	.	.	.	.	.	.
2F/	.	.	.	.	.	.	2B/	.	.	.
=77-	=77-	=77-	=77-	=77-	=77-	=77-	=77-	=77-	=77-	=77-
1E	.	.	1C	.	.	.	2.c/	.	.	.
.	.	.	.	.	.	.	4B/	.	.	.
=78-	=78-	=78-	=78-	=78-	=78-	=78-	=78-	=78-	=78-	=78-
1D	-o	.	2D/	.	.	.	4A/	.	.	.
.	.	.	.	.	.	.	4G/	.	.	.
.	.	.	2F/	.	.	.	2F/	.	.	.
=79-	=79-	=79-	=79-	=79-	=79-	=79-	=79-	=79-	=79-	=79-
!	!	!	!	!	!	!	!LO:SIC:v:t=custos A	!	!	!
2r	.	.	2E/	.	.	.	2G/	.	.	.
!	!	!	!	!	!	!	!LO:LB:g=original	!	!	!
2.D/	a-	.	2D/	.	.	.	2A/	.	.	.
=80-	=80-	=80-	=80-	=80-	=80-	=80-	=80-	=80-	=80-	=80-
.	.	.	1F	.	.	.	2D/	.	.	.
4C/	.	.	.	.	.	.	.	.	.	.
2D/	-ma-	.	.	.	.	.	1d\	.	.	.
=81-	=81-	=81-	=81-	=81-	=81-	=81-	=81-	=81-	=81-	=81-
2AA/	-bi-	.	1E	-bi-	.	.	.	.	.	.
2BB-X/	.	.	.	.	.	.	2c/	.	.	.
=82-	=82-	=82-	=82-	=82-	=82-	=82-	=82-	=82-	=82-	=82-
!	!	!	!LO:SIC:v:t=custos A	!	!	!	!	!	!	!
2GG/	.	.	00D;	-li	.	.	00d;	li	.	.
!	!	!	!LO:PB:g=original	!	!	!	!	!	!	!
2.BB-X/	.	.	.	.	.	.	.	.	.	.
=83-	=83-	=83-	=83-	=83-	=83-	=83-	=83-	=83-	=83-	=83-
.	.	.	.	.	.	.	.	.	.	.
4C/	.	.	.	.	.	.	.	.	.	.
!LO:SIC:v:t=custos D	!	!	!	!	!	!	!	!	!	!
2%5D;\	-li	.	.	.	.	.	.	.	.	.
*	*Xij	*	*	*	*	*	*	*	*	*
!LO:PB:g=original	!	!	!	!	!	!	!	!	!	!
=84-	=84-	=84-	=84-	=84-	=84-	=84-	=84-	=84-	=84-	=84-
.	.	.	.	.	.	.	.	.	.	.
=85-	=85-	=85-	=85-	=85-	=85-	=85-	=85-	=85-	=85-	=85-
.	.	.	.	.	.	.	.	.	.	.
=86||-	=86||-	=86||-	=86||-	=86||-	=86||-	=86||-	=86||-	=86||-	=86||-	=86||-
1r	.	.	1r	.	.	.	1d	Con-	Ne	.
=87-	=87-	=87-	=87-	=87-	=87-	=87-	=87-	=87-	=87-	=87-
!	!	!	!LO:TX:a:t=Conſolatur\noptimus	!	!	!	!	!	!	!
1r	.	.	1A	Con-	Ne	.	1f	-ſo-	pa-	.
=88-	=88-	=88-	=88-	=88-	=88-	=88-	=88-	=88-	=88-	=88-
1r	.	.	1c	-ſo-	pa-	.	1g	-la-	-ue-	.
=89-	=89-	=89-	=89-	=89-	=89-	=89-	=89-	=89-	=89-	=89-
1r	.	.	1d	-la-	-ue-	.	1g	-tur	-as	.
=90-	=90-	=90-	=90-	=90-	=90-	=90-	=90-	=90-	=90-	=90-
*	*	*	*	*	*	*	*lig	*	*	*
1D	Con-	Ne	1d	-tur	-as	.	0f	vir-	a-	.
=91-	=91-	=91-	=91-	=91-	=91-	=91-	=91-	=91-	=91-	=91-
1F	-ſo-	pa-	1c	vir-	a-	.	.	.	.	.
=92-	=92-	=92-	=92-	=92-	=92-	=92-	=92-	=92-	=92-	=92-
1G	-la-	-ue-	0B	.	-it	.	0e	.	-it	.
*	*	*	*	*	*	*	*Xlig	*	*	*
=93-	=93-	=93-	=93-	=93-	=93-	=93-	=93-	=93-	=93-	=93-
1G	-tur	-as	.	.	.	.	.	.	.	.
=94-	=94-	=94-	=94-	=94-	=94-	=94-	=94-	=94-	=94-	=94-
!	!	!	!	!	!	!	!LO:TX:a:t=Conſolatur\noptimus	!	!	!
!	!	!	!	!	!	!	!LO:SIC:v:t=custos g	!	!	!
0F	vir-	a-	1c	-gi-	vir-	.	0f	-gi-	-vir-	.
=95-	=95-	=95-	=95-	=95-	=95-	=95-	=95-	=95-	=95-	=95-
!	!	!	!	!	!	!	!LO:LB:g=original	!	!	!
.	.	.	1d	-nem	-go	.	.	.	.	.
=96-	=96-	=96-	=96-	=96-	=96-	=96-	=96-	=96-	=96-	=96-
1E	-gi-	-it	1c	pa-	gra-	.	1g	-nem	go	.
=97-	=97-	=97-	=97-	=97-	=97-	=97-	=97-	=97-	=97-	=97-
1F	-nem	vir-	1A	-ui	-tus	.	1f	pa-	gra-	.
=98-	=98-	=98-	=98-	=98-	=98-	=98-	=98-	=98-	=98-	=98-
2G\	pa-	-go	1r	.	.	.	1d	-ui-	-tus	.
1F\	-ui-	gra-	.	.	.	.	.	.	.	.
=99-	=99-	=99-	=99-	=99-	=99-	=99-	=99-	=99-	=99-	=99-
.	.	.	1r	.	.	.	1f	-dam	est	.
2D/	-dam	-tus	.	.	.	.	.	.	.	.
=100-	=100-	=100-	=100-	=100-	=100-	=100-	=100-	=100-	=100-	=100-
2F\	ob	est	1c	dam	est	.	1c	ob	ad	.
4C/	.	ad	.	.	.	.	.	.	.	.
4D/	.	.	.	.	.	.	.	.	.	.
=101-	=101-	=101-	=101-	=101-	=101-	=101-	=101-	=101-	=101-	=101-
!	!	!	!LO:SIC:v:t=custos F	!	!	!	!	!	!	!
*	*	*	*	*	*	*	*lig	*	*	*
4E/	.	.	1G	ob	ad	.	1B	nunc-	te	.
!LO:SIC:v:t=custos G	!	!LO:LB:g=original	!	!	!	!	!	!	!	!
4F/	.	.	.	.	.	.	.	.	.	.
!LO:LB:g=original	!	!	!	!	!	!	!	!	!	!
2G\	.	.	.	.	.	.	.	.	.	.
=102-	=102-	=102-	=102-	=102-	=102-	=102-	=102-	=102-	=102-	=102-
*	*	*	*lig	*	*	*	*	*	*	*
2A\	.	.	1F	nunc-	te	.	1c	.	.	.
1F\	nunc-	te	.	.	.	.	.	.	.	.
*	*	*	*	*	*	*	*Xlig	*	*	*
=103-	=103-	=103-	=103-	=103-	=103-	=103-	=103-	=103-	=103-	=103-
*	*	*	*	*	*	*	*lig	*	*	*
.	.	.	1G	.	.	.	1B	.	ser-	.
2E/	-ci-	ser-	.	.	.	.	.	.	.	.
*	*	*	*Xlig	*	*	*	*	*	*	*
=104-	=104-	=104-	=104-	=104-	=104-	=104-	=104-	=104-	=104-	=104-
*	*	*	*lig	*	*	*	*	*	*	*
2F\	.	.	1F	-ci-	ser-	.	1A	.	.	.
1D\	.	.	.	.	.	.	.	.	.	.
*	*	*	*	*	*	*	*Xlig	*	*	*
=105-	=105-	=105-	=105-	=105-	=105-	=105-	=105-	=105-	=105-	=105-
.	.	.	1E	.	.	.	1G	-ci-	.	.
2C/	.	.	.	.	.	.	.	.	.	.
*	*	*	*Xlig	*	*	*	*	*	*	*
=106-	=106-	=106-	=106-	=106-	=106-	=106-	=106-	=106-	=106-	=106-
1D	.	.	1D	.	.	.	1F	-um	-mo	.
=107-	=107-	=107-	=107-	=107-	=107-	=107-	=107-	=107-	=107-	=107-
1AA	-um	-mo	1C	um	-mo	.	1c	nun-	con-	.
=108-	=108-	=108-	=108-	=108-	=108-	=108-	=108-	=108-	=108-	=108-
2r	.	.	0G	nun-	con-	.	1B,	-q(am)	-ci-	.
2.E/	nun-	con-	.	.	.	.	.	.	.	.
=109-	=109-	=109-	=109-	=109-	=109-	=109-	=109-	=109-	=109-	=109-
*	*	*	*	*	*	*	*lig	*	*	*
.	.	.	.	.	.	.	1B	an-	-pi-	.
4F\	.	ci	.	.	.	.	.	.	.	.
2G\	.	.	.	.	.	.	.	.	.	.
=110-	=110-	=110-	=110-	=110-	=110-	=110-	=110-	=110-	=110-	=110-
!	!	!	!	!	!	!	!LO:SIC:v:t=custos d	!	!	!
1A	-q(am)	pi-	1F	-q(am)	-ci-	.	1c	.	.	.
!	!	!	!	!	!	!	!LO:PB:g=original	!	!	!
*	*	*	*	*	*	*	*Xlig	*	*	*
=111-	=111-	=111-	=111-	=111-	=111-	=111-	=111-	=111-	=111-	=111-
2.D/	an	-es	0F	an-	-pi-	.	1d	-te	-es	.
4E/	.	.	.	.	.	.	.	.	.	.
=112-	=112-	=112-	=112-	=112-	=112-	=112-	=112-	=112-	=112-	=112-
4F\	.	.	.	.	.	.	1c	.	.	.
!LO:SIC:v:t=custos A	!	!	!	!	!	!	!	!	!	!
4G\	.	.	.	.	.	.	.	.	.	.
!LO:LB:g=original	!	!	!	!	!	!	!	!	!	!
2.A\	.	.	.	.	.	.	.	.	.	.
=113-	=113-	=113-	=113-	=113-	=113-	=113-	=113-	=113-	=113-	=113-
*	*	*	*	*	*	*	*lig	*	*	*
.	.	.	1G	-te	-es	.	1B	.	.	.
4G\	.	.	.	.	.	.	.	.	.	.
1G\	.	.	.	.	.	.	.	.	.	.
=114-	=114-	=114-	=114-	=114-	=114-	=114-	=114-	=114-	=114-	=114-
.	.	.	1A	au-	fi-	.	1A	.	.	.
2F\	te	fi-	.	.	.	.	.	.	.	.
*	*	*	*	*	*	*	*Xlig	*	*	*
=115-	=115-	=115-	=115-	=115-	=115-	=115-	=115-	=115-	=115-	=115-
2G\	.	-li-	1G	.	-li-	.	2r	.	.	.
4GG/	au-	-um	.	.	.	.	2.B-X/	au-	fi-	.
4AA/	.	.	.	.	.	.	.	.	.	.
=116-	=116-	=116-	=116-	=116-	=116-	=116-	=116-	=116-	=116-	=116-
4BB/ny	.	.	1F	-di-	um	.	.	.	.	.
4C/	.	.	.	.	.	.	4A/	.	.	.
2.D/	.	.	.	.	.	.	2F/	-di-	.	.
=117-	=117-	=117-	=117-	=117-	=117-	=117-	=117-	=117-	=117-	=117-
.	.	.	1E	.	.	.	1G	.	.	.
4C/	.	.	.	.	.	.	.	.	.	.
1C/	.	.	.	.	.	.	.	.	.	.
=118-	=118-	=118-	=118-	=118-	=118-	=118-	=118-	=118-	=118-	=118-
.	.	.	1D	.	.	.	2A/	.	.	.
2BB/	.	.	.	.	.	.	2B/ny	.	.	.
=119-	=119-	=119-	=119-	=119-	=119-	=119-	=119-	=119-	=119-	=119-
1AA	-di-	.	1C	-di-	.	.	1A	.	.	.
=120-	=120-	=120-	=120-	=120-	=120-	=120-	=120-	=120-	=120-	=120-
!	!	!	!LO:SIC:v:t=custos d	!	!	!	!	!	!	!
0GG	-di-	.	0D;	-tum	.	.	2G/	.	.	.
!	!	!	!LO:LB:g=original	!	!	!	!	!	!	!
.	.	.	.	.	.	.	2.B/	.	.	.
=121-	=121-	=121-	=121-	=121-	=121-	=121-	=121-	=121-	=121-	=121-
.	.	.	.	.	.	.	.	.	.	.
!	!	!	!	!	!	!	!LO:SIC:v:t=custos G	!	!	!
.	.	.	.	.	.	.	4A/	.	.	.
!	!	!	!	!	!	!	!LO:LB:g=original	!	!	!
.	.	.	.	.	.	.	1G/	.	.	.
=122-	=122-	=122-	=122-	=122-	=122-	=122-	=122-	=122-	=122-	=122-
1D	.	.	1r	.	.	.	.	.	.	.
.	.	.	.	.	.	.	2F/	.	.	.
=123-	=123-	=123-	=123-	=123-	=123-	=123-	=123-	=123-	=123-	=123-
1GG	-tum	.	1r	.	.	.	1G	.	.	.
=124-	=124-	=124-	=124-	=124-	=124-	=124-	=124-	=124-	=124-	=124-
!LO:SIC:v:t=custos GG	!	!	!	!	!	!	!	!	!	!
1r	.	.	1r	.	.	.	1A	.	.	.
!LO:LB:g=original	!	!	!	!	!	!	!	!	!	!
=125-	=125-	=125-	=125-	=125-	=125-	=125-	=125-	=125-	=125-	=125-
1GG	.	.	1r	.	.	.	1B	-di-	li-	.
=126-	=126-	=126-	=126-	=126-	=126-	=126-	=126-	=126-	=126-	=126-
0D;	.	.	1r	.	.	.	0A	-tum	-um	.
=127-	=127-	=127-	=127-	=127-	=127-	=127-	=127-	=127-	=127-	=127-
.	.	.	1r	.	.	.	.	.	.	.
=128||-	=128||-	=128||-	=128||-	=128||-	=128||-	=128||-	=128||-	=128||-	=128||-	=128||-
!	!	!	!LO:TX:a:t=o lux beatiſſima	!	!	!	!LO:TX:a:t=o lux beatiſſima	!	!	!
2.D/	Fi-	Pec-	1d	Fi-	Pec-	.	1a	Fi-	Pec-	.
4E/	.	.	.	.	.	.	.	.	.	.
=129-	=129-	=129-	=129-	=129-	=129-	=129-	=129-	=129-	=129-	=129-
4F\	-li-	-ca-	1d	-li-	-ca-	.	1a	-li-	-ca-	.
4G\	.	.	.	.	.	.	.	.	.	.
2A\	.	.	.	.	.	.	.	.	.	.
=130-	=130-	=130-	=130-	=130-	=130-	=130-	=130-	=130-	=130-	=130-
*	*	*	*lig	*	*	*	*lig	*	*	*
1E	-um	-to-	1c	-um	-to-	.	1g	-um	-to-	.
=131-	=131-	=131-	=131-	=131-	=131-	=131-	=131-	=131-	=131-	=131-
2F\	.	.	1B	.	.	.	1f	.	.	.
2A\	.	.	.	.	.	.	.	.	.	.
*	*	*	*Xlig	*	*	*	*Xlig	*	*	*
=132-	=132-	=132-	=132-	=132-	=132-	=132-	=132-	=132-	=132-	=132-
1G	al-	-rum	1c	al	-rum	.	1g	al-	-rum	.
=133-	=133-	=133-	=133-	=133-	=133-	=133-	=133-	=133-	=133-	=133-
*	*	*	*lig	*	*	*	*lig	*	*	*
2.F\	-tiſ-	sa-	1d	tiſ-	sa-	.	1a	tiſ-	sa-	.
4E/	.	.	.	.	.	.	.	.	.	.
=134-	=134-	=134-	=134-	=134-	=134-	=134-	=134-	=134-	=134-	=134-
!LO:SIC:v:t=custos D	!	!	!	!	!	!	!	!	!	!
2F/	.	-lu-	1B	.	.	.	1f	.	.	.
!LO:PB:g=original	!	!	!	!	!	!	!	!	!	!
2D/	.	.	.	.	.	.	.	.	.	.
*	*	*	*Xlig	*	*	*	*Xlig	*	*	*
=135-	=135-	=135-	=135-	=135-	=135-	=135-	=135-	=135-	=135-	=135-
!	!	!	!	!	!	!	!LO:SIC:v:t=custos e	!	!	!
1G	.	.	1c	-si-	-lu-	.	1g	-si-	-lu-	.
!	!	!	!	!	!	!	!LO:LB:g=original	!	!	!
=136-	=136-	=136-	=136-	=136-	=136-	=136-	=136-	=136-	=136-	=136-
2.C/	.	.	0A	-mi	-tem	.	0e	-mi	-tem	.
4D/	.	.	.	.	.	.	.	.	.	.
=137-	=137-	=137-	=137-	=137-	=137-	=137-	=137-	=137-	=137-	=137-
1E	si-	-tem	.	.	.	.	.	.	.	.
=138-	=138-	=138-	=138-	=138-	=138-	=138-	=138-	=138-	=138-	=138-
2AA/	-mi	mi-	1F	et	mi-	.	1c	et	mi-	.
2A\	et	.	.	.	.	.	.	.	.	.
=139-	=139-	=139-	=139-	=139-	=139-	=139-	=139-	=139-	=139-	=139-
2F/	re-	-ſe-	1D	re-	-ſe-	.	1A	re-	-ſe-	.
2D/	.	.	.	.	.	.	.	.	.	.
=140-	=140-	=140-	=140-	=140-	=140-	=140-	=140-	=140-	=140-	=140-
1E	-gis	-ro-	1C	-gis	-ro-	.	1G	-gis	-ro-	.
=141-	=141-	=141-	=141-	=141-	=141-	=141-	=141-	=141-	=141-	=141-
1AA	q(ue)	-rum	1D,	q(ue)	-rum	.	1A	q(ue)	-rum	.
=142-	=142-	=142-	=142-	=142-	=142-	=142-	=142-	=142-	=142-	=142-
!	!	!	!LO:SIC:v:t=custos G	!	!	!	!	!	!	!
2r	.	.	1F	ma-	So-	.	1c	ma-	So-	.
!	!	!	!LO:LB:g=original	!	!	!	!	!	!	!
2AA/	ma-	So-	.	.	.	.	.	.	.	.
=143-	=143-	=143-	=143-	=143-	=143-	=143-	=143-	=143-	=143-	=143-
2.D\	.	.	1G	-xi-	-la-	.	1d	-xi-	-la-	.
4E\	.	.	.	.	.	.	.	.	.	.
=144-	=144-	=144-	=144-	=144-	=144-	=144-	=144-	=144-	=144-	=144-
4F\	.	.	2F/	-mi	-men	.	2c/	-mi	-men	.
!LO:SIC:v:t=custos A	!	!	!	!	!	!	!	!	!	!
4G\	.	.	.	.	.	.	.	.	.	.
!LO:LB:g=original	!	!	!	!	!	!	!	!	!	!
1A\	.	.	2F/	.	la-	.	2c/	de-	la-	.
=145-	=145-	=145-	=145-	=145-	=145-	=145-	=145-	=145-	=145-	=145-
.	.	.	1G	de-	-pſo-	.	1d	-um	-pſo-	.
4G\	.	.	.	.	.	.	.	.	.	.
4F\	-xi-	.	.	.	.	.	.	.	.	.
=146-	=146-	=146-	=146-	=146-	=146-	=146-	=146-	=146-	=146-	=146-
1G	-mi	.	1A	-um	-rum	.	1e	et	-rum	.
=147-	=147-	=147-	=147-	=147-	=147-	=147-	=147-	=147-	=147-	=147-
2F\	de-	.	1G	et	re-	.	1d	ho-	re-	.
2.A\	.	-la-	.	.	.	.	.	.	.	.
=148-	=148-	=148-	=148-	=148-	=148-	=148-	=148-	=148-	=148-	=148-
*	*	*	*lig	*	*	*	*lig	*	*	*
.	.	.	1F	ho-	-me-	.	1c	.	-me-	.
4G\	.	.	.	.	.	.	.	.	.	.
1F\	-um	-men	.	.	.	.	.	.	.	.
=149-	=149-	=149-	=149-	=149-	=149-	=149-	=149-	=149-	=149-	=149-
!	!	!	!	!	!	!	!LO:SIC:v:t=custos A	!	!	!
.	.	.	1E	.	.	.	1B	.	.	.
!	!	!	!	!	!	!	!LO:LB:g=original	!	!	!
2E/	et	.	.	.	.	.	.	.	.	.
*	*	*	*Xlig	*	*	*	*Xlig	*	*	*
=150-	=150-	=150-	=150-	=150-	=150-	=150-	=150-	=150-	=150-	=150-
2F\	ho-	.	1D	.	.	.	1A	.	.	.
2FF/	.	la-	.	.	.	.	.	.	.	.
=151-	=151-	=151-	=151-	=151-	=151-	=151-	=151-	=151-	=151-	=151-
1C	-mi-	-pſo-	2C/	.	.	.	2G/	.	.	.
.	.	.	1F/	.	.	.	1c/	.	.	.
=152-	=152-	=152-	=152-	=152-	=152-	=152-	=152-	=152-	=152-	=152-
1FF	-nem	-rum	.	.	.	.	.	.	.	.
.	.	.	4E/	.	.	.	4B/	.	.	.
.	.	.	4D/	.	.	.	4A/	.	.	.
=153-	=153-	=153-	=153-	=153-	=153-	=153-	=153-	=153-	=153-	=153-
2r	.	.	2E/	.	.	.	2B/	.	.	.
*	*ij	*	*	*	*	*	*	*	*	*
2C/	et	re-	2.F/	.	.	.	2.c/	.	.	.
=154-	=154-	=154-	=154-	=154-	=154-	=154-	=154-	=154-	=154-	=154-
2AA/	re-	-me-	.	.	.	.	.	.	.	.
.	.	.	4E/	.	.	.	4B/	.	.	.
!LO:SIC:v:t=custos C	!	!	!LO:SIC:v:t=custos C	!	!	!	!	!	!	!
2FF/	-gis	-di-	1D/	.	.	.	1A/	.	.	.
!LO:LB:g=original	!	!	!LO:LB:g=original	!	!	!	!	!	!	!
=155-	=155-	=155-	=155-	=155-	=155-	=155-	=155-	=155-	=155-	=155-
1C	q(ue)	-um	.	.	.	.	.	.	.	.
.	.	.	2C/	.	.	.	2G/	.	.	.
=156-	=156-	=156-	=156-	=156-	=156-	=156-	=156-	=156-	=156-	=156-
1r	.	.	2D/	.	.	.	2A/	.	.	.
.	.	.	2E/	.	.	.	2B/	.	.	.
=157-	=157-	=157-	=157-	=157-	=157-	=157-	=157-	=157-	=157-	=157-
2r	.	.	2F/	.	.	.	2c/	.	.	.
*	*	*ij	*	*	*	*	*	*	*	*
1D\	ma-	mi-	4E/	.	.	.	4B/	.	.	.
.	.	.	4D/	.	.	.	4A/	.	.	.
=158-	=158-	=158-	=158-	=158-	=158-	=158-	=158-	=158-	=158-	=158-
.	.	.	1E	mi-	-di-	.	1B	mi-	di-	.
4C/	-xi-	-ſe-	.	.	.	.	.	.	.	.
4BB/	-mi	.	.	.	.	.	.	.	.	.
=159-	=159-	=159-	=159-	=159-	=159-	=159-	=159-	=159-	=159-	=159-
!	!	!	!	!	!	!	!LO:SIC:v:t=custos A	!	!	!
2C/	de-	-ro-	00D;	-nem	-um	.	0A;	-nem	-um	.
!	!	!	!	!	!	!	!LO:LB:g=original	!	!	!
2D/	-um	-rum	.	.	.	.	.	.	.	.
=160-	=160-	=160-	=160-	=160-	=160-	=160-	=160-	=160-	=160-	=160-
2AA/	et	So-	.	.	.	.	.	.	.	.
2D/	.	la-	.	.	.	.	.	.	.	.
=161-	=161-	=161-	=161-	=161-	=161-	=161-	=161-	=161-	=161-	=161-
1AA	.	-men	.	.	.	.	1r	.	.	.
=162-	=162-	=162-	=162-	=162-	=162-	=162-	=162-	=162-	=162-	=162-
2r	.	.	.	.	.	.	1r	.	.	.
2AA/	ho-	la-	.	.	.	.	.	.	.	.
=163-	=163-	=163-	=163-	=163-	=163-	=163-	=163-	=163-	=163-	=163-
2D/	.	-pſo-	1r	.	.	.	1A	Et	Ma-	La-
4C/	.	-rum	.	.	.	.	.	.	.	.
4BB/	.	re-	.	.	.	.	.	.	.	.
=164-	=164-	=164-	=164-	=164-	=164-	=164-	=164-	=164-	=164-	=164-
*	*	*	*	*	*	*	*lig	*	*	*
1AA	-mi-	-me-	1r	.	.	.	1e	lux	-ter	-na
=165-	=165-	=165-	=165-	=165-	=165-	=165-	=165-	=165-	=165-	=165-
!LO:SIC:v:t=custos A	!	!	!	!	!	!	!	!	!	!
0D;	-nem	-dium	1D	Et	Ma-	Lana-	1f	.	.	.
*	*Xij	*Xij	*	*	*	*	*	*	*	*
!LO:LB:g=original	!	!	!	!	!	!	!	!	!	!
*	*	*	*	*	*	*	*Xlig	*	*	*
=166-	=166-	=166-	=166-	=166-	=166-	=166-	=166-	=166-	=166-	=166-
*	*	*	*lig	*	*	*	*lig	*	*	*
.	.	.	1A	lux-	-ter	-quod	1e	be-	e-	quod
=167-	=167-	=167-	=167-	=167-	=167-	=167-	=167-	=167-	=167-	=167-
1r	.	.	1B	.	.	.	1d	.	.	.
*	*	*	*Xlig	*	*	*	*Xlig	*	*	*
=168-	=168-	=168-	=168-	=168-	=168-	=168-	=168-	=168-	=168-	=168-
*	*	*	*	*	*	*	*lig	*	*	*
1r	.	.	0A	-be-	e-	.	1e	-a-	-ris	.
=169-	=169-	=169-	=169-	=169-	=169-	=169-	=169-	=169-	=169-	=169-
1r	.	.	.	.	.	.	1f	.	.	.
*	*	*	*	*	*	*	*Xlig	*	*	*
=170-	=170-	=170-	=170-	=170-	=170-	=170-	=170-	=170-	=170-	=170-
!	!	!	!LO:SIC:v:t=custos A	!	!	!	!	!	!	!
*	*	*	*	*	*	*	*lig	*	*	*
1r	.	.	1G	.	.	.	1g	-tiſ-	in	.
!	!	!	!LO:LB:g=original	!	!	!	!	!	!	!
=171-	=171-	=171-	=171-	=171-	=171-	=171-	=171-	=171-	=171-	=171-
1r	.	.	0A	a-	ris	.	1e	.	.	.
*	*	*	*	*	*	*	*Xlig	*	*	*
=172-	=172-	=172-	=172-	=172-	=172-	=172-	=172-	=172-	=172-	=172-
2r	.	.	.	.	.	.	1f	-si-	tac-	.
2A\	Et	Ma-	.	.	.	.	.	.	.	.
=173-	=173-	=173-	=173-	=173-	=173-	=173-	=173-	=173-	=173-	=173-
2F\	lux	.	1B	-tiſ-	.	.	1d	-ma	-ta	.
2D/	be-	ter	.	.	.	.	.	.	.	.
=174-	=174-	=174-	=174-	=174-	=174-	=174-	=174-	=174-	=174-	=174-
1E	-a	e-	1c	-si-	in-	.	1e	tu-	ce-	.
=175-	=175-	=175-	=175-	=175-	=175-	=175-	=175-	=175-	=175-	=175-
2AA/	tiſ-	-ris	0A	-ma	-ta-	.	1f	-i	-li	.
2A\	.	in-	.	.	.	.	.	.	.	.
=176-	=176-	=176-	=176-	=176-	=176-	=176-	=176-	=176-	=176-	=176-
*	*	*	*	*	*	*	*lig	*	*	*
2F\	.	.	.	.	.	.	1e	cor-	por-	.
2D/	.	.	.	.	.	.	.	.	.	.
=177-	=177-	=177-	=177-	=177-	=177-	=177-	=177-	=177-	=177-	=177-
1G	.	.	1B	.	-cta	.	1d	.	.	.
*	*	*	*	*	*	*	*Xlig	*	*	*
=178-	=178-	=178-	=178-	=178-	=178-	=178-	=178-	=178-	=178-	=178-
!	!	!	!	!	!	!	!LO:SIC:v:t=custos c	!	!	!
1C	.	.	1G	.	ce-	.	1e	-dis	-ta	.
!	!	!	!	!	!	!	!LO:LB:g=original	!	!	!
=179-	=179-	=179-	=179-	=179-	=179-	=179-	=179-	=179-	=179-	=179-
1D	si-	ta-	1A	tu-	-li	.	1c	in-	iam	.
=180-	=180-	=180-	=180-	=180-	=180-	=180-	=180-	=180-	=180-	=180-
1A	-ma	-cta	1B	-i	por-	.	1d	-fi-	fac-	.
=181-	=181-	=181-	=181-	=181-	=181-	=181-	=181-	=181-	=181-	=181-
*	*	*	*lig	*	*	*	*	*	*	*
2r	.	.	1A	cor-	-ta	.	1c	-mia	-ta	.
2G\	tu-	ce-	.	.	.	.	.	.	.	.
=182-	=182-	=182-	=182-	=182-	=182-	=182-	=182-	=182-	=182-	=182-
2E/	-i	li	1G	.	.	.	1r	.	.	.
!LO:SIC:v:t=custos F	!	!	!	!	!	!	!	!	!	!
2C/	cor-	por-	.	.	.	.	.	.	.	.
!LO:LB:g=original	!	!	!	!	!	!	!	!	!	!
*	*	*	*Xlig	*	*	*	*	*	*	*
=183-	=183-	=183-	=183-	=183-	=183-	=183-	=183-	=183-	=183-	=183-
2.F\	.	.	1A	-dis	iam	.	1c	ob-	fun-	.
4E/	-dis	-ta	.	.	.	.	.	.	.	.
=184-	=184-	=184-	=184-	=184-	=184-	=184-	=184-	=184-	=184-	=184-
2D/	.	.	1F	in-	fac-	.	1d	-um-	.	.
1G\	in-	iam	.	.	.	.	.	.	.	.
=185-	=185-	=185-	=185-	=185-	=185-	=185-	=185-	=185-	=185-	=185-
.	.	.	1G	-fi-	.	.	1e	-bra-	-dens	.
1F\	.	.	.	.	.	.	.	.	.	.
=186-	=186-	=186-	=186-	=186-	=186-	=186-	=186-	=186-	=186-	=186-
.	.	.	1F	-mia	-ta	.	1d	-bit	re-	.
2E/	.	.	.	.	.	.	.	.	.	.
=187-	=187-	=187-	=187-	=187-	=187-	=187-	=187-	=187-	=187-	=187-
*	*	*	*	*	*	*	*lig	*	*	*
1F	.	fa-	1r	.	.	.	1g	vi-	-gem	.
=188-	=188-	=188-	=188-	=188-	=188-	=188-	=188-	=188-	=188-	=188-
1D	fi-	.	1r	.	.	.	1f	.	.	.
*	*	*	*	*	*	*	*Xlig	*	*	*
=189-	=189-	=189-	=189-	=189-	=189-	=189-	=189-	=189-	=189-	=189-
1C	-mia	-cta	1r	.	.	.	1e	.	glo-	.
=190-	=190-	=190-	=190-	=190-	=190-	=190-	=190-	=190-	=190-	=190-
2r	.	.	1F	ob-	fun-	.	2d/	.	.	.
1D\	ob-	fun-	.	.	.	.	1f\	.	.	.
=191-	=191-	=191-	=191-	=191-	=191-	=191-	=191-	=191-	=191-	=191-
!	!	!	!LO:SIC:v:t=custos A	!	!	!	!	!	!	!
.	.	.	1G	-um-	-dens	.	.	.	.	.
!	!	!	!LO:LB:g=original	!	!	!	!	!	!	!
2C/	-um-	-dens	.	.	.	.	1e\	.	.	.
=192-	=192-	=192-	=192-	=192-	=192-	=192-	=192-	=192-	=192-	=192-
4D/	-bra-	re-	1A	-bra-	re-	.	.	.	.	.
4E/	.	.	.	.	.	.	.	.	.	.
!	!	!	!	!	!	!	!LO:SIC:v:t=custos e	!	!	!
4F\	.	.	.	.	.	.	2d/	sce-	-ri-	.
!LO:SIC:v:t=custos A	!	!	!	!	!	!LO:LB:g=original	!	!	!	!
4G\	.	.	.	.	.	.	.	.	.	.
!LO:LB:g=original	!	!	!	!	!	!	!	!	!	!
=193-	=193-	=193-	=193-	=193-	=193-	=193-	=193-	=193-	=193-	=193-
2.A\	.	.	1G	-bit	-gem	.	1e	-ra	-e	.
4G/	.	.	.	.	.	.	.	.	.	.
=194-	=194-	=194-	=194-	=194-	=194-	=194-	=194-	=194-	=194-	=194-
4F/	.	.	1c	vi-	glo-	.	2r	.	.	.
4E/	.	.	.	.	.	.	.	.	.	.
*	*	*	*	*	*	*	*	*ij	*ij	*
1D\	.	-gem	.	.	.	.	2e\	in	fac-	.
=195-	=195-	=195-	=195-	=195-	=195-	=195-	=195-	=195-	=195-	=195-
*	*	*	*lig	*	*	*	*	*	*	*
.	.	.	1B	.	.	.	2d/	fir-	-ta	.
2C/	.	.	.	.	.	.	2e\	-ma	fun-	.
=196-	=196-	=196-	=196-	=196-	=196-	=196-	=196-	=196-	=196-	=196-
1F	-bit	glo-	1A	.	.	.	1f	ob-	.	.
*	*	*	*Xlig	*	*	*	*	*	*	*
=197-	=197-	=197-	=197-	=197-	=197-	=197-	=197-	=197-	=197-	=197-
2E/	.	.	2G/	.	.	.	2e\	-um-	-dens	.
2.C/	vis-	.	1B\	.	.	.	2d/	-bra-	re-	.
=198-	=198-	=198-	=198-	=198-	=198-	=198-	=198-	=198-	=198-	=198-
.	.	.	.	.	.	.	2g\	-bit	-gem	.
4D/	.	.	.	.	.	.	.	.	.	.
4E/	.	.	1A\	-sce-	-ri	.	2.f\	vi-	glo-	.
4F/	.	.	.	.	.	.	.	.	.	.
=199-	=199-	=199-	=199-	=199-	=199-	=199-	=199-	=199-	=199-	=199-
1G	.	.	.	.	-ri-	.	.	.	.	.
.	.	.	.	.	.	.	4e\	-sce-	.	.
.	.	.	2G/	.	.	.	1e\	.	.	.
=200-	=200-	=200-	=200-	=200-	=200-	=200-	=200-	=200-	=200-	=200-
2.F/	.	.	1%7A;	-ra	-e	.	.	.	.	.
.	.	.	.	.	.	.	2d/	.	-ri-	.
4E/	.	.	.	.	.	.	.	.	.	.
=201-	=201-	=201-	=201-	=201-	=201-	=201-	=201-	=201-	=201-	=201-
*	*	*	*	*	*	*	*	*Xij	*Xij	*
!	!	!	!	!	!	!	!LO:SIC:v:t=custos D	!	!	!
2C/	.	.	.	.	.	.	00.e;	-ra	-e	.
!	!	!	!	!	!	!	!LO:LB:g=original	!	!	!
2.G\	.	.	.	.	.	.	.	.	.	.
=202-	=202-	=202-	=202-	=202-	=202-	=202-	=202-	=202-	=202-	=202-
.	.	.	.	.	.	.	.	.	.	.
4F/	.	.	.	.	.	.	.	.	.	.
1D\	.	.	.	.	.	.	.	.	.	.
=203-	=203-	=203-	=203-	=203-	=203-	=203-	=203-	=203-	=203-	=203-
.	.	.	.	.	.	.	.	.	.	.
!LO:SIC:v:t=custos C	!	!	!	!	!	!	!	!	!	!
2E/	.	.	.	.	.	.	.	.	.	.
!LO:LB:g=original	!	!	!	!	!	!	!	!	!	!
=204-	=204-	=204-	=204-	=204-	=204-	=204-	=204-	=204-	=204-	=204-
2C/	-sce-	-ri-	.	.	.	.	.	.	.	.
2D/	.	.	.	.	.	.	.	.	.	.
=205-	=205-	=205-	=205-	=205-	=205-	=205-	=205-	=205-	=205-	=205-
0AA;	-ra	-e	.	.	.	.	.	.	.	.
=206-	=206-	=206-	=206-	=206-	=206-	=206-	=206-	=206-	=206-	=206-
.	.	.	.	.	.	.	.	.	.	.
*	*	*	*	*	*	*	*clefC4	*	*	*
=207-	=207-	=207-	=207-	=207-	=207-	=207-	=207-	=207-	=207-	=207-
!	!	!	!LO:TX:a:t=Da tuis fidelibus	!	!	!	!LO:TX:a:t=Da tuis\nfidelibus	!	!	!
1r	.	.	1d	Quem	Ut	.	2.D/	Quem	Ut	.
.	.	.	.	.	.	.	4E/	.	.	.
=208-	=208-	=208-	=208-	=208-	=208-	=208-	=208-	=208-	=208-	=208-
1r	.	.	1d	no-	pur-	.	2F/	no-	pur-	.
.	.	.	.	.	.	.	2.G/	-bis	-ga-	.
=209-	=209-	=209-	=209-	=209-	=209-	=209-	=209-	=209-	=209-	=209-
1r	.	.	1G	-bis	-ga	.	.	.	.	.
.	.	.	.	.	.	.	4A/	.	.	.
.	.	.	.	.	.	.	2B/	.	.	.
=210-	=210-	=210-	=210-	=210-	=210-	=210-	=210-	=210-	=210-	=210-
1r	.	.	1A	con-	tis	.	2A/	.	.	.
.	.	.	.	.	.	.	2.c\	con-	-tis	.
=211-	=211-	=211-	=211-	=211-	=211-	=211-	=211-	=211-	=211-	=211-
!	!	!	!LO:SIC:v:t=custos B	!	!	!	!	!	!	!
1r	.	.	1c	-ci-	ne-	.	.	.	.	.
!	!	!	!LO:LB:g=original	!	!	!	!	!	!	!
.	.	.	.	.	.	.	4B/	.	.	.
.	.	.	.	.	.	.	1A\	-ci-	ne-	.
=212-	=212-	=212-	=212-	=212-	=212-	=212-	=212-	=212-	=212-	=212-
1r	.	.	1B	-li-	-xi-	.	.	.	.	.
.	.	.	.	.	.	.	2G/	-li-	-xi-	.
=213-	=213-	=213-	=213-	=213-	=213-	=213-	=213-	=213-	=213-	=213-
1D	Quem	Ut	0A	-a	-bus	.	0A	-a	-bus	.
=214-	=214-	=214-	=214-	=214-	=214-	=214-	=214-	=214-	=214-	=214-
1D	no-	pur-	.	.	.	.	.	.	.	.
=215-	=215-	=215-	=215-	=215-	=215-	=215-	=215-	=215-	=215-	=215-
1GG	-bis	-ga-	1r	.	.	.	1r	.	.	.
=216-	=216-	=216-	=216-	=216-	=216-	=216-	=216-	=216-	=216-	=216-
1AA	con-	-tis	1r	.	.	.	1r	.	.	.
=217-	=217-	=217-	=217-	=217-	=217-	=217-	=217-	=217-	=217-	=217-
1C	-ci-	ne-	1r	.	.	.	1r	.	.	.
=218-	=218-	=218-	=218-	=218-	=218-	=218-	=218-	=218-	=218-	=218-
1BB	-li	-xi-	1r	.	.	.	1r	.	.	.
=219-	=219-	=219-	=219-	=219-	=219-	=219-	=219-	=219-	=219-	=219-
!	!	!	!	!	!	!	!LO:SIC:v:t=custos d	!	!	!
1AA	-a	-bus	1A	gra-	fru-	.	1c	gra-	fru-	.
!	!	!	!	!	!	!	!LO:LB:g=original	!	!	!
*	*	*	*	*	*	*	*clefC3	*	*	*
=220-	=220-	=220-	=220-	=220-	=220-	=220-	=220-	=220-	=220-	=220-
1r	.	.	1B	-ci-	-a-	.	2.d\	-ci-	-a-	.
.	.	.	.	.	.	.	4e\	-am	-mur	.
=221-	=221-	=221-	=221-	=221-	=221-	=221-	=221-	=221-	=221-	=221-
*	*	*	*lig	*	*	*	*	*	*	*
1r	.	.	1A	-am	-mur	.	2f\	.	ce-	.
.	.	.	.	.	.	.	1e\	.	-le-	.
=222-	=222-	=222-	=222-	=222-	=222-	=222-	=222-	=222-	=222-	=222-
1r	.	.	1G	.	.	.	.	.	.	.
.	.	.	.	.	.	.	2d/	q(ue)	.	.
*	*	*	*Xlig	*	*	*	*	*	*	*
=223-	=223-	=223-	=223-	=223-	=223-	=223-	=223-	=223-	=223-	=223-
1r	.	.	1A	q(ue)	ce-	.	2f\	in	.	.
.	.	.	.	.	.	.	2e\	.	.	.
=224-	=224-	=224-	=224-	=224-	=224-	=224-	=224-	=224-	=224-	=224-
1r	.	.	1F	in	-le-	.	2d/	pe-	.	.
.	.	.	.	.	.	.	2f\	-tra	-sti-	.
=225-	=225-	=225-	=225-	=225-	=225-	=225-	=225-	=225-	=225-	=225-
1E	gra-	fru-	1G	pe-	-ſti-	.	4e\	.	-bus	.
.	.	.	.	.	.	.	4d\	.	.	.
.	.	.	.	.	.	.	4c/	.	.	.
.	.	.	.	.	.	.	4B/	.	.	.
=226-	=226-	=226-	=226-	=226-	=226-	=226-	=226-	=226-	=226-	=226-
!LO:SIC:v:t=custos E	!	!	!	!	!	!	!	!	!	!
1F	-ci-	-a-	1F	-tra	-bus	.	1A	.	.	.
!LO:LB:g=original	!	!	!	!	!	!	!	!	!	!
=227-	=227-	=227-	=227-	=227-	=227-	=227-	=227-	=227-	=227-	=227-
*lig	*	*	*	*	*	*	*	*	*	*
1E	-am	-mur	1r	.	.	.	2r	.	.	.
.	.	.	.	.	.	.	2e\	.	.	.
=228-	=228-	=228-	=228-	=228-	=228-	=228-	=228-	=228-	=228-	=228-
!	!	!	!	!	!	!	!LO:SIC:v:t=custos e	!	!	!
1D	.	.	1r	.	.	.	1f	.	.	.
!	!	!	!	!	!	!	!LO:LB:g=original	!	!	!
*Xlig	*	*	*	*	*	*	*	*	*	*
=229-	=229-	=229-	=229-	=229-	=229-	=229-	=229-	=229-	=229-	=229-
1E	q(ue)	ce-	1r	.	.	.	1e	.	.	.
=230-	=230-	=230-	=230-	=230-	=230-	=230-	=230-	=230-	=230-	=230-
1C	in	-le-	1r	.	.	.	2e\	.	.	.
.	.	.	.	.	.	.	2c/	.	.	.
=231-	=231-	=231-	=231-	=231-	=231-	=231-	=231-	=231-	=231-	=231-
1D	-pe-	-sti-	1r	.	.	.	1f	.	.	.
=232-	=232-	=232-	=232-	=232-	=232-	=232-	=232-	=232-	=232-	=232-
1C	-tra	-bus	1r	.	.	.	2.e\	.	.	.
.	.	.	.	.	.	.	4d/	.	.	.
=233-	=233-	=233-	=233-	=233-	=233-	=233-	=233-	=233-	=233-	=233-
1C	nu-	in	1r	.	.	.	2.c/	.	.	.
.	.	.	.	.	.	.	4B/	.	.	.
=234-	=234-	=234-	=234-	=234-	=234-	=234-	=234-	=234-	=234-	=234-
1D	-ſe-	ce-	1F	mi-	in	.	1A	.	.	.
=235-	=235-	=235-	=235-	=235-	=235-	=235-	=235-	=235-	=235-	=235-
1E	-ris	-le-	1G	-ſe-	ce-	.	2G/	.	.	.
.	.	.	.	.	.	.	2g\	nun-	in	.
=236-	=236-	=236-	=236-	=236-	=236-	=236-	=236-	=236-	=236-	=236-
1AA	mor-	-sti	1A	-ris	-le-	.	2f\	-ſe-	ce-	.
.	.	.	.	.	.	.	1e\	-ris	-le-	.
=237-	=237-	=237-	=237-	=237-	=237-	=237-	=237-	=237-	=237-	=237-
*lig	*	*	*	*	*	*	*	*	*	*
!	!	!	!LO:SIC:v:t=custos E	!	!	!	!	!	!	!
1BB	-ta-	cur-	1D	mor-	-sti	.	.	.	.	.
!	!	!	!LO:LB:g=original	!	!	!	!	!	!	!
.	.	.	.	.	.	.	1d\	mor-	-sti	.
=238-	=238-	=238-	=238-	=238-	=238-	=238-	=238-	=238-	=238-	=238-
*	*	*	*lig	*	*	*	*	*	*	*
1C	.	.	1E	-ta-	cu-	.	.	.	.	.
.	.	.	.	.	.	.	1c\	-ta-	cu-	.
*Xlig	*	*	*	*	*	*	*	*	*	*
=239-	=239-	=239-	=239-	=239-	=239-	=239-	=239-	=239-	=239-	=239-
1D	.	.	1F	.	.	.	.	.	.	.
!	!	!	!	!	!	!	!LO:SIC:v:t=custos c	!	!	!
.	.	.	.	.	.	.	2B/	.	.	.
!	!	!	!	!	!	!	!LO:PB:g=original	!	!	!
*	*	*	*Xlig	*	*	*	*	*	*	*
=240-	=240-	=240-	=240-	=240-	=240-	=240-	=240-	=240-	=240-	=240-
2C/	.	.	1G	.	.	.	2c/	.	.	.
2GG/	.	.	.	.	.	.	2d/	.	.	.
=241-	=241-	=241-	=241-	=241-	=241-	=241-	=241-	=241-	=241-	=241-
*	*	*	*lig	*	*	*	*	*	*	*
2AA/	.	.	1F	.	.	.	2f\	.	.	.
!LO:SIC:v:t=custos C	!	!	!	!	!	!	!	!	!	!
2BB/	.	.	.	.	.	.	4e\	.	.	.
!LO:LB:g=original	!	!	!	!	!	!	!	!	!	!
.	.	.	.	.	.	.	4d\	.	.	.
=242-	=242-	=242-	=242-	=242-	=242-	=242-	=242-	=242-	=242-	=242-
2C/	.	.	1E	.	.	.	1c	-li-	-ria	.
1AA/	-li-	-ri-	.	.	.	.	.	.	.	.
*	*	*	*Xlig	*	*	*	*	*	*	*
=243-	=243-	=243-	=243-	=243-	=243-	=243-	=243-	=243-	=243-	=243-
.	.	.	1D	-li-	.	.	1d	-bus	.	.
2GG/	-bus	-a	.	.	.	.	.	.	.	.
=244-	=244-	=244-	=244-	=244-	=244-	=244-	=244-	=244-	=244-	=244-
*	*ij	*ij	*	*	*	*	*	*	*	*
2AA/	Quem	Ut	1C	-bus	-ria	.	2r	.	.	.
*	*	*	*	*	*	*	*	*ij	*ij	*
1A\	no-	pur-	.	.	.	.	2e\	gra-	fi-	.
=245-	=245-	=245-	=245-	=245-	=245-	=245-	=245-	=245-	=245-	=245-
*	*	*	*	*ij	*	*	*	*	*	*
.	.	.	2D/	gra-	.	.	2.f\	-ci-	-na-	.
2F\	-bis	-ga-	2d\	-ci-	.	.	.	.	.	.
.	.	.	.	.	.	.	4e/	.	.	.
=246-	=246-	=246-	=246-	=246-	=246-	=246-	=246-	=246-	=246-	=246-
2G\	con-	-tis	2B/	-am	.	.	2d/	-am	-mur	.
2A\	-ci-	ne-	2c\	gu(em)	.	.	2c/	qu(em)	ce-	.
=247-	=247-	=247-	=247-	=247-	=247-	=247-	=247-	=247-	=247-	=247-
2D/	-lia	-xi-	2d\	mi	.	.	2f\	mi	-li-	.
2.A\	gra-	-bus-	2.c\	pe-	.	.	2.e/	pe-	-sti-	.
=248-	=248-	=248-	=248-	=248-	=248-	=248-	=248-	=248-	=248-	=248-
.	.	.	.	.	.	.	.	.	.	.
!	!	!	!	!	!	!	!LO:SIC:v:t=custos d	!	!	!
4G\	-ci-	-fi-	4B/	-tra	.	.	4d/	tra	-bus	.
2F\	-am	-na-	1A\	nus-	.	.	1d\	nus-	in	.
=249-	=249-	=249-	=249-	=249-	=249-	=249-	=249-	=249-	=249-	=249-
1E	q(ue)	-mur	.	.	.	.	.	.	.	.
.	.	.	2G/	-se-	.	.	2c/	-se-	.	.
=250-	=250-	=250-	=250-	=250-	=250-	=250-	=250-	=250-	=250-	=250-
2r	.	.	1A	-ris	.	.	1d	-ris	.	.
1D\	mi	ce-	.	.	.	.	.	.	.	.
=251-	=251-	=251-	=251-	=251-	=251-	=251-	=251-	=251-	=251-	=251-
!	!	!	!LO:SIC:v:t=custos G	!	!	!	!	!	!	!
.	.	.	2F/	mor-	.	.	2r	.	.	.
2BB/	pe-	-li-	2G/	.	.	.	2d/	mor-	ce-	.
=252-	=252-	=252-	=252-	=252-	=252-	=252-	=252-	=252-	=252-	=252-
!LO:SIC:v:t=custos D	!	!	!	!	!	!	!	!	!	!
2C/	-tra	-sti-	2A/	-ta-	.	.	2c/	-ta-	-le-	.
!LO:LB:g=original	!	!	!	!	!	!	!	!	!	!
2D/	nus-	-bus	2D/	.	.	.	2A/	.	-sti	.
=253-	=253-	=253-	=253-	=253-	=253-	=253-	=253-	=253-	=253-	=253-
2GG/	-se-	in	2G/	-li-	.	.	2B/	-li-	cu-	.
2.D/	-ris	ce-	1F/	.	.	.	1A/	.	.	.
=254-	=254-	=254-	=254-	=254-	=254-	=254-	=254-	=254-	=254-	=254-
.	.	.	.	.	.	.	.	.	.	.
4C/	.	-le-	.	.	.	.	.	.	.	.
2BB/	mor-	-sti	4E/	.	.	.	1d\	.	.	.
.	.	.	4D/	.	.	.	.	.	.	.
=255-	=255-	=255-	=255-	=255-	=255-	=255-	=255-	=255-	=255-	=255-
1AA	-ta-	cu-	1E	.	.	.	.	.	.	.
.	.	.	.	.	.	.	2c/	.	.	.
=256-	=256-	=256-	=256-	=256-	=256-	=256-	=256-	=256-	=256-	=256-
0GG	-li-	ri-	0G	.	.	.	1%5d;	-bus	-ria	.
*	*	*	*	*	*	*	*	*Xij	*Xij	*
=257-	=257-	=257-	=257-	=257-	=257-	=257-	=257-	=257-	=257-	=257-
.	.	.	.	.	.	.	.	.	.	.
=258-	=258-	=258-	=258-	=258-	=258-	=258-	=258-	=258-	=258-	=258-
0.D;	-bus	-a	1.F	.	.	.	.	.	.	.
*	*Xij	*Xij	*	*	*	*	*	*	*	*
=259-	=259-	=259-	=259-	=259-	=259-	=259-	=259-	=259-	=259-	=259-
.	.	.	.	.	.	.	.	.	.	.
.	.	.	2D/	.	.	.	.	.	.	.
=260-	=260-	=260-	=260-	=260-	=260-	=260-	=260-	=260-	=260-	=260-
!	!	!	!LO:N:vis=00	!	!	!	!	!	!	!
.	.	.	1D;	bus	.	.	.	.	.	.
*	*	*	*	*Xij	*	*	*	*	*	*
=-	=-	=-	=-	=-	=-	=-	=-	=-	=-	=-
*-	*-	*-	*-	*-	*-	*-	*-	*-	*-	*-
!!!system-decoration: [(s1,s2,s3)]
!!!AIN: 1 bass 1 empty 1 tenor
!!!ENC: Marta Opryszak
!!!END: 2022-01-19
!!!ENC: Julita Ruszuk
!!!END: 2022-01-26
